app/img/icomoon/facebook.svg

<svg width="10" height="20" fill="none" xmlns="http://www.w3.org/2000/svg"><path d="M10 0v4H8c-.69 0-1 .81-1 1.5V8h3v4H7v8H3v-8H0V8h3V4c0-2.21 1.79-4 4-4h3z" fill="#fff"/></svg>

<svg width="10" height="20" viewBox="0 0 10 20" fill="none" xmlns="http://www.w3.org/2000/svg">
<path d="M10 0V4H8C7.31 4 7 4.81 7 5.5V8H10V12H7V20H3V12H0V8H3V4C3 1.79 4.79 0 7 0H10Z" fill="white"/>
</svg>
